src/topics/icons/ionic.svg

<svg height="179" preserveAspectRatio="xMidYMid" viewBox="0 0 512 179" width="512" xmlns="http://www.w3.org/2000/svg"><g fill="#4e8ef7"><path d="m227.68138 66.299984h3.692424v69.868925h-3.692424z"/><path d="m283.837742 64.5852862c-20.96088 0-36.775656 15.8208-36.775656 36.6491608 0 20.960878 15.814776 36.648157 36.775656 36.648157 20.962886 0 36.782682-15.687279 36.782682-36.648157-.002008-20.8283608-15.8208-36.6491608-36.782682-36.6491608zm0 69.8699298c-18.849632 0-33.086244-14.237616-33.086244-33.220769 0-18.9841568 14.235608-33.2197646 33.086244-33.2197646 18.851638 0 33.09327 14.2356078 33.09327 33.2197646-.002008 18.983153-14.240628 33.220769-33.09327 33.220769z"/><path d="m390.354824 71.5725804c-7.909898-6.4602354-17.39997-6.9872942-22.278024-6.9872942-11.07225 0-23.335152 5.1430902-27.68113 15.1612236h-.268046v-13.4465254h-3.69142v69.8689256h3.69142v-40.208063c0-17.5324862 10.813238-27.9461646 28.344722-27.9461646 10.546196 0 16.21032 3.4273882 19.77123 6.5897412 5.2736 4.7465412 8.569474 12.5239214 8.569474 24.6492862v36.9152002h3.693428v-36.9152002c0-12.5209098-3.295874-21.8814746-10.151654-27.6811294z"/><path d="m420.939294 66.299984h3.69142v69.868925h-3.69142z"/><path d="m477.096658 134.455216c-17.798524 0-33.090258-13.448534-33.090258-33.220769 0-9.4910744 3.953444-18.7191216 9.624596-23.8632156 7.249318-6.4582274 13.707546-9.356549 23.597176-9.356549 13.707546 0 25.836926 7.6438588 30.582464 20.9578666h4.087968c-5.537632-16.4773646-20.565334-24.3872628-34.801946-24.3872628-21.226916 0-36.783686 16.0828236-36.783686 36.7816788 0 21.751968 16.47837 36.515639 36.783686 36.515639 16.610888 0 29.792378-9.491075 34.668424-23.72869h-4.083952c-3.427388 10.414682-14.76568 20.301302-30.584472 20.301302z"/><circle cx="229.528596" cy="44.642384" r="3.984565"/><circle cx="422.783498" cy="44.642384" r="3.984565"/><circle cx="89.373114" cy="89.270714" r="36.448376"/><path d="m163.754667 27.4241254c0-6.923043-5.61393-12.5329568-12.534965-12.5329568-3.141271 0-6.002447 1.1625412-8.203043 3.072-14.945381-11.27203134-33.526965-17.9631686-53.6445492-17.9631686-49.2242824 0-89.27071372 40.0474352-89.27071372 89.2717176 0 49.2232784 40.04743532 89.2717174 89.27171772 89.2717174 49.2242822 0 89.2707132-40.048439 89.2707132-89.2717174 0-20.1175842-6.691137-38.6991686-17.962164-53.6455528 1.909459-2.1985884 3.073004-5.0617726 3.073004-8.2020394zm-74.3825572 148.1155766c-47.5678118 0-86.26898824-38.701177-86.26898824-86.2689882 0-47.5678118 38.70117644-86.2689883 86.26898824-86.2689883 19.3415532 0 37.2143682 6.39899606 51.6186352 17.1901491-1.447655 2.0439842-2.306008 4.5357176-2.306008 7.231247 0 6.9220392 5.611922 12.531953 12.532957 12.531953 2.696533 0 5.185255-.858353 7.230243-2.306008 10.791153 14.4042668 17.190149 32.2770824 17.190149 51.6206432.002008 47.5688152-38.697161 86.2699922-86.2659762 86.2699922z"/></g></svg>

<?xml version="1.0" encoding="UTF-8" standalone="no"?>
<svg width="512px" height="179px" viewBox="0 0 512 179" version="1.1" xmlns="http://www.w3.org/2000/svg" xmlns:xlink="http://www.w3.org/1999/xlink" preserveAspectRatio="xMidYMid">
	<g fill="#4E8EF7">
		<rect x="227.68138" y="66.2999844" width="3.69242352" height="69.8689254"></rect>
		<path d="M283.837742,64.5852862 C262.876862,64.5852862 247.062086,80.4060862 247.062086,101.234447 C247.062086,122.195325 262.876862,137.882604 283.837742,137.882604 C304.800628,137.882604 320.620424,122.195325 320.620424,101.234447 C320.618416,80.4060862 304.799624,64.5852862 283.837742,64.5852862 L283.837742,64.5852862 L283.837742,64.5852862 Z M283.837742,134.455216 C264.98811,134.455216 250.751498,120.2176 250.751498,101.234447 C250.751498,82.2502902 264.987106,68.0146824 283.837742,68.0146824 C302.68938,68.0146824 316.931012,82.2502902 316.931012,101.234447 C316.929004,120.2176 302.690384,134.455216 283.837742,134.455216 L283.837742,134.455216 L283.837742,134.455216 Z"></path>
		<path d="M390.354824,71.5725804 C382.444926,65.112345 372.954854,64.5852862 368.0768,64.5852862 C357.00455,64.5852862 344.741648,69.7283764 340.39567,79.7465098 L340.127624,79.7465098 L340.127624,66.2999844 L336.436204,66.2999844 L336.436204,136.16891 L340.127624,136.16891 L340.127624,95.960847 C340.127624,78.4283608 350.940862,68.0146824 368.472346,68.0146824 C379.018542,68.0146824 384.682666,71.4420706 388.243576,74.6044236 C393.517176,79.3509648 396.81305,87.128345 396.81305,99.2537098 L396.81305,136.16891 L400.506478,136.16891 L400.506478,99.2537098 C400.506478,86.7328 397.210604,77.3722352 390.354824,71.5725804 L390.354824,71.5725804 L390.354824,71.5725804 Z"></path>
		<rect x="420.939294" y="66.2999844" width="3.6914196" height="69.8689254"></rect>
		<path d="M477.096658,134.455216 C459.298134,134.455216 444.0064,121.006682 444.0064,101.234447 C444.0064,91.7433726 447.959844,82.5153254 453.630996,77.3712314 C460.880314,70.913004 467.338542,68.0146824 477.228172,68.0146824 C490.935718,68.0146824 503.065098,75.6585412 507.810636,88.972549 L511.898604,88.972549 C506.360972,72.4951844 491.33327,64.5852862 477.096658,64.5852862 C455.869742,64.5852862 440.312972,80.6681098 440.312972,101.366965 C440.312972,123.118933 456.791342,137.882604 477.096658,137.882604 C493.707546,137.882604 506.889036,128.391529 511.765082,114.153914 L507.68113,114.153914 C504.253742,124.568596 492.91545,134.455216 477.096658,134.455216 L477.096658,134.455216 L477.096658,134.455216 Z"></path>
		<circle cx="229.528596" cy="44.6423844" r="3.9845647"></circle>
		<circle cx="422.783498" cy="44.6423844" r="3.9845647"></circle>
		<circle cx="89.3731138" cy="89.2707138" r="36.4483764"></circle>
		<path d="M163.754667,27.4241254 C163.754667,20.5010824 158.140737,14.8911686 151.219702,14.8911686 C148.078431,14.8911686 145.217255,16.0537098 143.016659,17.9631686 C128.071278,6.69113726 109.489694,0 89.3721098,0 C40.1478274,0 0.101396078,40.0474352 0.101396078,89.2717176 C0.101396078,138.494996 40.1488314,178.543435 89.3731138,178.543435 C138.597396,178.543435 178.643827,138.494996 178.643827,89.2717176 C178.643827,69.1541334 171.95269,50.572549 160.681663,35.6261648 C162.591122,33.4275764 163.754667,30.5643922 163.754667,27.4241254 L163.754667,27.4241254 L163.754667,27.4241254 Z M89.3721098,175.539702 C41.804298,175.539702 3.10312156,136.838525 3.10312156,89.2707138 C3.10312156,41.702902 41.804298,3.0017255 89.3721098,3.0017255 C108.713663,3.0017255 126.586478,9.40072156 140.990745,20.1918746 C139.54309,22.2358588 138.684737,24.7275922 138.684737,27.4231216 C138.684737,34.3451608 144.296659,39.9550746 151.217694,39.9550746 C153.914227,39.9550746 156.402949,39.0967216 158.447937,37.6490666 C169.23909,52.0533334 175.638086,69.926149 175.638086,89.2697098 C175.640094,136.838525 136.940925,175.539702 89.3721098,175.539702 L89.3721098,175.539702 L89.3721098,175.539702 Z"></path>
	</g>
</svg>
